icon/nanazip.svg

<svg xmlns="http://www.w3.org/2000/svg" width="1024" height="1024" fill="none" viewBox="0 0 1024 1024"><mask id="c" width="768" height="1024" x="128" y="0" maskUnits="userSpaceOnUse" style="mask-type:alpha"><rect width="768" height="1024" x="128" fill="url(#a)" rx="90"/><rect width="768" height="1024" x="128" fill="url(#b)" rx="90"/><rect width="768" height="1024" x="128" fill="#000" fill-opacity=".2" rx="90"/><rect width="768" height="1024" x="128" fill="#000" fill-opacity=".2" rx="90"/></mask><g mask="url(#c)"><rect width="774.079" height="832" x="127.968" y="192" fill="url(#d)" rx="90"/><rect width="774.079" height="832" x="127.968" y="192" fill="#000" fill-opacity=".2" rx="90"/><rect width="774.079" height="832" x="127.968" y="192" fill="#000" fill-opacity=".2" rx="90"/><rect width="774.079" height="832" x="127.968" y="192" fill="#000" fill-opacity=".2" rx="90"/><g filter="url(#e)"><rect width="768" height="864" x="128" y="96" fill="url(#f)" rx="90"/><rect width="768" height="864" x="128" y="96" fill="#000" fill-opacity=".2" rx="90"/></g><g filter="url(#g)"><rect width="768" height="896" x="128" fill="url(#h)" rx="90"/><rect width="768" height="896" x="128" fill="url(#i)" fill-opacity=".45" rx="90"/><rect width="768" height="896" x="128" fill="url(#j)" fill-opacity=".3" rx="90"/></g><g fill="#fff" filter="url(#k)"><path d="M320 21.333C320 9.551 330.233 0 342.857 0H416v64h-73.143C330.233 64 320 54.449 320 42.667zm192 85.334C512 118.449 501.767 128 489.143 128H416V64h73.143C501.767 64 512 73.551 512 85.333zm-192 42.666C320 137.551 330.233 128 342.857 128H416v64h-73.143C330.233 192 320 182.449 320 170.667zm192 85.334C512 246.449 501.767 256 489.143 256H416v-64h73.143c12.624 0 22.857 9.551 22.857 21.333zm-192 42.666C320 265.551 330.233 256 342.857 256H416v64h-73.143C330.233 320 320 310.449 320 298.667zm192 85.334C512 374.449 501.767 384 489.143 384H416v-64h73.143c12.624 0 22.857 9.551 22.857 21.333z"/></g></g><g filter="url(#l)"><rect width="192" height="191" x="320" y="449" fill="#fff" rx="30"/><path fill="#0475d9" d="M378.602 492.85c6.547 0 11.872 5.235 12.017 11.747l.003.273c0 1.408-.242 2.76-.687 4.015-1.652 4.665-6.102 8.005-11.333 8.005s-9.681-3.34-11.333-8.005a12 12 0 0 1-.684-4.288c.145-6.512 5.47-11.747 12.017-11.747m0 84.661c5.261 0 9.732 3.379 11.361 8.085.427 1.233.659 2.557.659 3.935 0 6.639-5.381 12.02-12.02 12.02s-12.02-5.381-12.02-12.02c0-1.378.232-2.702.659-3.935 1.629-4.706 6.101-8.085 11.361-8.085"/><path fill="#0475d9" d="M367.269 508.885c.87 11.213 1.498 27.857 1.498 36.69 0 11.064-.641 29.14-1.526 40.021 1.629-4.706 6.101-8.085 11.361-8.085s9.732 3.379 11.361 8.085c-.885-10.881-1.526-28.957-1.526-40.021 0-8.833.628-25.477 1.498-36.69-1.652 4.665-6.102 8.005-11.333 8.005s-9.681-3.34-11.333-8.005"/><path fill="#0475d9" fill-rule="evenodd" d="M366.585 504.597c.239.013.469 1.518.684 4.288zm-.003 0h.003l-.003.273c0 1.408.242 2.76.687 4.015m-.028 76.711c-.208 2.557-.429 3.935-.659 3.935 0-1.378.232-2.702.659-3.935m23.381-80.999h-.003c-.239.013-.469 1.518-.684 4.288a12 12 0 0 0 .684-4.288m.003 84.934c-.229 0-.451-1.378-.659-3.935.427 1.233.659 2.557.659 3.935" clip-rule="evenodd"/><path fill="#0475d9" d="M456.19 492.85c6.547 0 11.872 5.235 12.017 11.747l.003.273c0 1.408-.242 2.76-.687 4.015-1.652 4.665-6.102 8.005-11.333 8.005s-9.681-3.34-11.333-8.005a12 12 0 0 1-.684-4.288c.145-6.512 5.47-11.747 12.017-11.747m0 84.661c5.26 0 9.732 3.379 11.361 8.085.427 1.233.659 2.557.659 3.935 0 6.639-5.381 12.02-12.02 12.02s-12.02-5.381-12.02-12.02c0-1.378.232-2.702.659-3.935 1.629-4.706 6.101-8.085 11.361-8.085"/><path fill="#0475d9" d="M444.857 508.885c.87 11.213 1.498 27.857 1.498 36.69 0 11.064-.641 29.14-1.526 40.021 1.629-4.706 6.101-8.085 11.361-8.085s9.732 3.379 11.361 8.085c-.885-10.881-1.526-28.957-1.526-40.021 0-8.833.628-25.477 1.498-36.69-1.652 4.665-6.102 8.005-11.333 8.005s-9.681-3.34-11.333-8.005"/><path fill="#0475d9" fill-rule="evenodd" d="M444.173 504.597c.239.013.469 1.518.684 4.288zm-.003 0h.003l-.003.273c0 1.408.242 2.76.687 4.015m-.028 76.711c-.208 2.557-.43 3.935-.659 3.935 0-1.378.232-2.702.659-3.935m23.381-80.999h-.003c-.239.013-.469 1.518-.684 4.288a12 12 0 0 0 .684-4.288m.003 84.934c-.229 0-.451-1.378-.659-3.935.427 1.233.659 2.557.659 3.935" clip-rule="evenodd"/><path fill="#0475d9" d="M370.069 497.568c4.629-4.63 12.096-4.693 16.804-.191l.195.191c.996.996 1.78 2.122 2.353 3.325 2.13 4.466 1.345 9.976-2.353 13.674-3.699 3.699-9.208 4.483-13.674 2.353a12 12 0 0 1-3.325-2.353q-.097-.097-.191-.195c-4.502-4.708-4.439-12.174.191-16.804m75.537 75.537c3.72-3.72 9.271-4.492 13.751-2.316a12 12 0 0 1 3.248 2.316c4.694 4.694 4.694 12.305 0 16.999s-12.305 4.694-16.999 0a12 12 0 0 1-2.317-3.248c-2.175-4.48-1.403-10.031 2.317-13.751"/><path fill="#0475d9" d="M373.394 516.92c8.544 7.313 31.574 29.456 37.82 35.702 7.824 7.823 25.007 25.913 32.075 34.234-2.175-4.48-1.403-10.031 2.317-13.751s9.271-4.492 13.751-2.316c-8.321-7.069-26.411-24.252-34.234-32.076-6.246-6.246-28.389-29.276-35.702-37.82 2.13 4.466 1.345 9.976-2.353 13.674-3.699 3.699-9.208 4.483-13.674 2.353"/><path fill="#0475d9" fill-rule="evenodd" d="M369.878 514.372c.178-.16 1.404.741 3.516 2.548zm-.002.002.002-.002q.094.098.191.195c.995.996 2.122 1.78 3.325 2.353m69.895 69.936c1.661 1.954 2.479 3.086 2.317 3.248a12 12 0 0 1-2.317-3.248m-56.414-89.481-.002.002c-.16.178.741 1.405 2.548 3.516a12 12 0 0 0-2.353-3.325l-.195-.191m75.732 75.728c-.162.162-1.294-.656-3.248-2.316a12 12 0 0 1 3.248 2.316" clip-rule="evenodd"/></g><defs><linearGradient id="a" x1="512" x2="512" y1="0" y2="1024" gradientUnits="userSpaceOnUse"><stop stop-color="#31a8ff"/><stop offset="1" stop-color="#007ad2"/></linearGradient><linearGradient id="b" x1="128" x2="1111.04" y1="0" y2="737.28" gradientUnits="userSpaceOnUse"><stop stop-color="#81dfff"/><stop offset=".513" stop-color="#3ac1fd"/><stop offset="1" stop-color="#0b9dff"/></linearGradient><linearGradient id="d" x1="515.008" x2="515.008" y1="192" y2="1024" gradientUnits="userSpaceOnUse"><stop stop-color="#0079d5"/><stop offset="1" stop-color="#0367cc"/></linearGradient><linearGradient id="f" x1="512" x2="512" y1="96" y2="960" gradientUnits="userSpaceOnUse"><stop stop-color="#0079d5"/><stop offset="1" stop-color="#0367cc"/></linearGradient><linearGradient id="h" x1="512" x2="512" y1="0" y2="896" gradientUnits="userSpaceOnUse"><stop stop-color="#0079d5"/><stop offset="1" stop-color="#0367cc"/></linearGradient><linearGradient id="i" x1="512" x2="512" y1="0" y2="896" gradientUnits="userSpaceOnUse"><stop stop-color="#0085ff"/><stop offset="1" stop-color="#0085ff" stop-opacity="0"/></linearGradient><linearGradient id="j" x1="512" x2="512" y1="0" y2="896" gradientUnits="userSpaceOnUse"><stop stop-color="#00c2ff"/><stop offset="1" stop-color="#00d1ff" stop-opacity="0"/></linearGradient><filter id="e" width="928" height="1024" x="48" y="16" color-interpolation-filters="sRGB" filterUnits="userSpaceOnUse"><feFlood flood-opacity="0" result="BackgroundImageFix"/><feColorMatrix in="SourceAlpha" result="hardAlpha" values="0 0 0 0 0 0 0 0 0 0 0 0 0 0 0 0 0 0 127 0"/><feOffset/><feGaussianBlur stdDeviation="40"/><feComposite in2="hardAlpha" operator="out"/><feColorMatrix values="0 0 0 0 0 0 0 0 0 0 0 0 0 0 0 0 0 0 0.25 0"/><feBlend in2="BackgroundImageFix" result="effect1_dropShadow_342_107"/><feBlend in="SourceGraphic" in2="effect1_dropShadow_342_107" result="shape"/></filter><filter id="g" width="1088" height="1216" x="-32" y="-152" color-interpolation-filters="sRGB" filterUnits="userSpaceOnUse"><feFlood flood-opacity="0" result="BackgroundImageFix"/><feColorMatrix in="SourceAlpha" result="hardAlpha" values="0 0 0 0 0 0 0 0 0 0 0 0 0 0 0 0 0 0 127 0"/><feOffset dy="8"/><feGaussianBlur stdDeviation="80"/><feComposite in2="hardAlpha" operator="out"/><feColorMatrix values="0 0 0 0 0 0 0 0 0 0 0 0 0 0 0 0 0 0 0.4 0"/><feBlend in2="BackgroundImageFix" result="effect1_dropShadow_342_107"/><feBlend in="SourceGraphic" in2="effect1_dropShadow_342_107" result="shape"/></filter><filter id="k" width="220" height="412" x="306" y="0" color-interpolation-filters="sRGB" filterUnits="userSpaceOnUse"><feFlood flood-opacity="0" result="BackgroundImageFix"/><feColorMatrix in="SourceAlpha" result="hardAlpha" values="0 0 0 0 0 0 0 0 0 0 0 0 0 0 0 0 0 0 127 0"/><feOffset dy="14"/><feGaussianBlur stdDeviation="7"/><feComposite in2="hardAlpha" operator="out"/><feColorMatrix values="0 0 0 0 0 0 0 0 0 0 0 0 0 0 0 0 0 0 0.25 0"/><feBlend in2="BackgroundImageFix" result="effect1_dropShadow_342_107"/><feBlend in="SourceGraphic" in2="effect1_dropShadow_342_107" result="shape"/></filter><filter id="l" width="224" height="223" x="304" y="445" color-interpolation-filters="sRGB" filterUnits="userSpaceOnUse"><feFlood flood-opacity="0" result="BackgroundImageFix"/><feColorMatrix in="SourceAlpha" result="hardAlpha" values="0 0 0 0 0 0 0 0 0 0 0 0 0 0 0 0 0 0 127 0"/><feOffset dy="12"/><feGaussianBlur stdDeviation="8"/><feColorMatrix values="0 0 0 0 0 0 0 0 0 0 0 0 0 0 0 0 0 0 0.25 0"/><feBlend in2="BackgroundImageFix" result="effect1_dropShadow_342_107"/><feBlend in="SourceGraphic" in2="effect1_dropShadow_342_107" result="shape"/></filter></defs></svg>

<svg width="1024" height="1024" viewBox="0 0 1024 1024" fill="none" xmlns="http://www.w3.org/2000/svg">
<mask id="mask0_342_107" style="mask-type:alpha" maskUnits="userSpaceOnUse" x="128" y="0" width="768" height="1024">
<rect x="128" width="768" height="1024" rx="90" fill="url(#paint0_linear_342_107)"/>
<rect x="128" width="768" height="1024" rx="90" fill="url(#paint1_linear_342_107)"/>
<rect x="128" width="768" height="1024" rx="90" fill="black" fill-opacity="0.2"/>
<rect x="128" width="768" height="1024" rx="90" fill="black" fill-opacity="0.2"/>
</mask>
<g mask="url(#mask0_342_107)">
<rect x="127.968" y="192" width="774.079" height="832" rx="90" fill="url(#paint2_linear_342_107)"/>
<rect x="127.968" y="192" width="774.079" height="832" rx="90" fill="black" fill-opacity="0.2"/>
<rect x="127.968" y="192" width="774.079" height="832" rx="90" fill="black" fill-opacity="0.2"/>
<rect x="127.968" y="192" width="774.079" height="832" rx="90" fill="black" fill-opacity="0.2"/>
<g filter="url(#filter0_d_342_107)">
<rect x="128" y="96" width="768" height="864" rx="90" fill="url(#paint3_linear_342_107)"/>
<rect x="128" y="96" width="768" height="864" rx="90" fill="black" fill-opacity="0.2"/>
</g>
<g filter="url(#filter1_d_342_107)">
<rect x="128" width="768" height="896" rx="90" fill="url(#paint4_linear_342_107)"/>
<rect x="128" width="768" height="896" rx="90" fill="url(#paint5_linear_342_107)" fill-opacity="0.45"/>
<rect x="128" width="768" height="896" rx="90" fill="url(#paint6_linear_342_107)" fill-opacity="0.3"/>
</g>
<g filter="url(#filter2_d_342_107)">
<path d="M320 21.3333C320 9.55126 330.233 0 342.857 0H416V64H342.857C330.233 64 320 54.4487 320 42.6667V21.3333Z" fill="white"/>
<path d="M512 106.667C512 118.449 501.767 128 489.143 128L416 128L416 64L489.143 64C501.767 64 512 73.5513 512 85.3333V106.667Z" fill="white"/>
<path d="M320 149.333C320 137.551 330.233 128 342.857 128L416 128L416 192H342.857C330.233 192 320 182.449 320 170.667V149.333Z" fill="white"/>
<path d="M512 234.667C512 246.449 501.767 256 489.143 256H416L416 192H489.143C501.767 192 512 201.551 512 213.333V234.667Z" fill="white"/>
<path d="M320 277.333C320 265.551 330.233 256 342.857 256H416L416 320H342.857C330.233 320 320 310.449 320 298.667V277.333Z" fill="white"/>
<path d="M512 362.667C512 374.449 501.767 384 489.143 384H416L416 320H489.143C501.767 320 512 329.551 512 341.333V362.667Z" fill="white"/>
</g>
</g>
<g filter="url(#filter3_d_342_107)">
<rect x="320" y="449" width="192" height="191" rx="30" fill="white"/>
<path d="M378.602 492.85C385.149 492.85 390.474 498.085 390.619 504.597C390.621 504.688 390.622 504.779 390.622 504.87C390.622 506.278 390.38 507.63 389.935 508.885C388.283 513.55 383.833 516.89 378.602 516.89C373.372 516.89 368.921 513.55 367.269 508.885C366.824 507.63 366.582 506.278 366.582 504.87C366.582 504.779 366.583 504.688 366.585 504.597C366.73 498.085 372.055 492.85 378.602 492.85Z" fill="#0475D9"/>
<path d="M378.602 577.511C383.863 577.511 388.334 580.89 389.963 585.596C390.39 586.829 390.622 588.153 390.622 589.531C390.622 596.17 385.241 601.551 378.602 601.551C371.964 601.551 366.582 596.17 366.582 589.531C366.582 588.153 366.814 586.829 367.241 585.596C368.87 580.89 373.342 577.511 378.602 577.511Z" fill="#0475D9"/>
<path d="M367.269 508.885C368.139 520.098 368.767 536.742 368.767 545.575C368.767 556.639 368.126 574.715 367.241 585.596C368.87 580.89 373.342 577.511 378.602 577.511C383.863 577.511 388.334 580.89 389.963 585.596C389.078 574.715 388.437 556.639 388.437 545.575C388.437 536.742 389.065 520.098 389.935 508.885C388.283 513.55 383.833 516.89 378.602 516.89C373.372 516.89 368.921 513.55 367.269 508.885Z" fill="#0475D9"/>
<path fill-rule="evenodd" clip-rule="evenodd" d="M366.585 504.597C366.824 504.61 367.054 506.115 367.269 508.885L366.585 504.597ZM366.582 504.597C366.583 504.597 366.584 504.597 366.585 504.597C366.583 504.688 366.582 504.779 366.582 504.87C366.582 506.278 366.824 507.63 367.269 508.885M367.241 585.596C367.033 588.153 366.812 589.531 366.582 589.531C366.582 588.153 366.814 586.829 367.241 585.596Z" fill="#0475D9"/>
<path fill-rule="evenodd" clip-rule="evenodd" d="M390.622 504.597C390.621 504.597 390.62 504.597 390.619 504.597C390.38 504.61 390.15 506.115 389.935 508.885C390.38 507.63 390.622 506.278 390.622 504.87C390.622 504.779 390.621 504.688 390.619 504.597M390.622 589.531C390.393 589.531 390.171 588.153 389.963 585.596C390.39 586.829 390.622 588.153 390.622 589.531Z" fill="#0475D9"/>
<path d="M456.19 492.85C462.737 492.85 468.062 498.085 468.207 504.597C468.209 504.688 468.21 504.779 468.21 504.87C468.21 506.278 467.968 507.63 467.523 508.885C465.871 513.55 461.421 516.89 456.19 516.89C450.959 516.89 446.509 513.55 444.857 508.885C444.412 507.63 444.17 506.278 444.17 504.87C444.17 504.779 444.171 504.688 444.173 504.597C444.318 498.085 449.643 492.85 456.19 492.85Z" fill="#0475D9"/>
<path d="M456.19 577.511C461.45 577.511 465.922 580.89 467.551 585.596C467.978 586.829 468.21 588.153 468.21 589.531C468.21 596.17 462.829 601.551 456.19 601.551C449.551 601.551 444.17 596.17 444.17 589.531C444.17 588.153 444.402 586.829 444.829 585.596C446.458 580.89 450.93 577.511 456.19 577.511Z" fill="#0475D9"/>
<path d="M444.857 508.885C445.727 520.098 446.355 536.742 446.355 545.575C446.355 556.639 445.714 574.715 444.829 585.596C446.458 580.89 450.93 577.511 456.19 577.511C461.45 577.511 465.922 580.89 467.551 585.596C466.666 574.715 466.025 556.639 466.025 545.575C466.025 536.742 466.653 520.098 467.523 508.885C465.871 513.55 461.421 516.89 456.19 516.89C450.959 516.89 446.509 513.55 444.857 508.885Z" fill="#0475D9"/>
<path fill-rule="evenodd" clip-rule="evenodd" d="M444.173 504.597C444.412 504.61 444.642 506.115 444.857 508.885L444.173 504.597ZM444.17 504.597C444.171 504.597 444.172 504.597 444.173 504.597C444.171 504.688 444.17 504.779 444.17 504.87C444.17 506.278 444.412 507.63 444.857 508.885M444.829 585.596C444.621 588.153 444.399 589.531 444.17 589.531C444.17 588.153 444.402 586.829 444.829 585.596Z" fill="#0475D9"/>
<path fill-rule="evenodd" clip-rule="evenodd" d="M468.21 504.597C468.209 504.597 468.208 504.597 468.207 504.597C467.968 504.61 467.738 506.115 467.523 508.885C467.968 507.63 468.21 506.278 468.21 504.87C468.21 504.779 468.209 504.688 468.207 504.597M468.21 589.531C467.981 589.531 467.759 588.153 467.551 585.596C467.978 586.829 468.21 588.153 468.21 589.531Z" fill="#0475D9"/>
<path d="M370.069 497.568C374.698 492.938 382.165 492.875 386.873 497.377C386.938 497.44 387.003 497.504 387.068 497.568C388.064 498.564 388.848 499.69 389.421 500.893C391.551 505.359 390.766 510.869 387.068 514.567C383.369 518.266 377.86 519.05 373.394 516.92C372.191 516.347 371.064 515.563 370.069 514.567C370.004 514.503 369.941 514.437 369.878 514.372C365.376 509.664 365.439 502.198 370.069 497.568Z" fill="#0475D9"/>
<path d="M445.606 573.105C449.326 569.385 454.877 568.613 459.357 570.789C460.53 571.358 461.631 572.131 462.605 573.105C467.299 577.799 467.299 585.41 462.605 590.104C457.911 594.798 450.3 594.798 445.606 590.104C444.631 589.13 443.859 588.03 443.289 586.856C441.114 582.376 441.886 576.825 445.606 573.105Z" fill="#0475D9"/>
<path d="M373.394 516.92C381.938 524.233 404.968 546.376 411.214 552.622C419.038 560.445 436.221 578.535 443.289 586.856C441.114 582.376 441.886 576.825 445.606 573.105C449.326 569.385 454.877 568.613 459.357 570.789C451.036 563.72 432.946 546.537 425.123 538.713C418.877 532.467 396.734 509.437 389.421 500.893C391.551 505.359 390.766 510.869 387.068 514.567C383.369 518.266 377.86 519.05 373.394 516.92Z" fill="#0475D9"/>
<path fill-rule="evenodd" clip-rule="evenodd" d="M369.878 514.372C370.056 514.212 371.282 515.113 373.394 516.92L369.878 514.372ZM369.876 514.374C369.876 514.373 369.877 514.373 369.878 514.372C369.941 514.437 370.004 514.503 370.069 514.567C371.064 515.563 372.191 516.347 373.394 516.92M443.289 586.856C444.95 588.81 445.768 589.942 445.606 590.104C444.631 589.13 443.859 588.03 443.289 586.856Z" fill="#0475D9"/>
<path fill-rule="evenodd" clip-rule="evenodd" d="M386.875 497.375C386.874 497.376 386.873 497.376 386.873 497.377C386.713 497.555 387.614 498.782 389.421 500.893C388.848 499.69 388.064 498.564 387.068 497.568C387.003 497.504 386.938 497.44 386.873 497.377M462.605 573.105C462.443 573.267 461.311 572.449 459.357 570.789C460.53 571.358 461.631 572.131 462.605 573.105Z" fill="#0475D9"/>
</g>
<defs>
<filter id="filter0_d_342_107" x="48" y="16" width="928" height="1024" filterUnits="userSpaceOnUse" color-interpolation-filters="sRGB">
<feFlood flood-opacity="0" result="BackgroundImageFix"/>
<feColorMatrix in="SourceAlpha" type="matrix" values="0 0 0 0 0 0 0 0 0 0 0 0 0 0 0 0 0 0 127 0" result="hardAlpha"/>
<feOffset/>
<feGaussianBlur stdDeviation="40"/>
<feComposite in2="hardAlpha" operator="out"/>
<feColorMatrix type="matrix" values="0 0 0 0 0 0 0 0 0 0 0 0 0 0 0 0 0 0 0.25 0"/>
<feBlend mode="normal" in2="BackgroundImageFix" result="effect1_dropShadow_342_107"/>
<feBlend mode="normal" in="SourceGraphic" in2="effect1_dropShadow_342_107" result="shape"/>
</filter>
<filter id="filter1_d_342_107" x="-32" y="-152" width="1088" height="1216" filterUnits="userSpaceOnUse" color-interpolation-filters="sRGB">
<feFlood flood-opacity="0" result="BackgroundImageFix"/>
<feColorMatrix in="SourceAlpha" type="matrix" values="0 0 0 0 0 0 0 0 0 0 0 0 0 0 0 0 0 0 127 0" result="hardAlpha"/>
<feOffset dy="8"/>
<feGaussianBlur stdDeviation="80"/>
<feComposite in2="hardAlpha" operator="out"/>
<feColorMatrix type="matrix" values="0 0 0 0 0 0 0 0 0 0 0 0 0 0 0 0 0 0 0.4 0"/>
<feBlend mode="normal" in2="BackgroundImageFix" result="effect1_dropShadow_342_107"/>
<feBlend mode="normal" in="SourceGraphic" in2="effect1_dropShadow_342_107" result="shape"/>
</filter>
<filter id="filter2_d_342_107" x="306" y="0" width="220" height="412" filterUnits="userSpaceOnUse" color-interpolation-filters="sRGB">
<feFlood flood-opacity="0" result="BackgroundImageFix"/>
<feColorMatrix in="SourceAlpha" type="matrix" values="0 0 0 0 0 0 0 0 0 0 0 0 0 0 0 0 0 0 127 0" result="hardAlpha"/>
<feOffset dy="14"/>
<feGaussianBlur stdDeviation="7"/>
<feComposite in2="hardAlpha" operator="out"/>
<feColorMatrix type="matrix" values="0 0 0 0 0 0 0 0 0 0 0 0 0 0 0 0 0 0 0.25 0"/>
<feBlend mode="normal" in2="BackgroundImageFix" result="effect1_dropShadow_342_107"/>
<feBlend mode="normal" in="SourceGraphic" in2="effect1_dropShadow_342_107" result="shape"/>
</filter>
<filter id="filter3_d_342_107" x="304" y="445" width="224" height="223" filterUnits="userSpaceOnUse" color-interpolation-filters="sRGB">
<feFlood flood-opacity="0" result="BackgroundImageFix"/>
<feColorMatrix in="SourceAlpha" type="matrix" values="0 0 0 0 0 0 0 0 0 0 0 0 0 0 0 0 0 0 127 0" result="hardAlpha"/>
<feOffset dy="12"/>
<feGaussianBlur stdDeviation="8"/>
<feColorMatrix type="matrix" values="0 0 0 0 0 0 0 0 0 0 0 0 0 0 0 0 0 0 0.25 0"/>
<feBlend mode="normal" in2="BackgroundImageFix" result="effect1_dropShadow_342_107"/>
<feBlend mode="normal" in="SourceGraphic" in2="effect1_dropShadow_342_107" result="shape"/>
</filter>
<linearGradient id="paint0_linear_342_107" x1="512" y1="0" x2="512" y2="1024" gradientUnits="userSpaceOnUse">
<stop stop-color="#31A8FF"/>
<stop offset="1" stop-color="#007AD2"/>
</linearGradient>
<linearGradient id="paint1_linear_342_107" x1="128" y1="0" x2="1111.04" y2="737.28" gradientUnits="userSpaceOnUse">
<stop stop-color="#81DFFF"/>
<stop offset="0.512573" stop-color="#3AC1FD"/>
<stop offset="1" stop-color="#0B9DFF"/>
</linearGradient>
<linearGradient id="paint2_linear_342_107" x1="515.008" y1="192" x2="515.008" y2="1024" gradientUnits="userSpaceOnUse">
<stop stop-color="#0079D5"/>
<stop offset="1" stop-color="#0367CC"/>
</linearGradient>
<linearGradient id="paint3_linear_342_107" x1="512" y1="96" x2="512" y2="960" gradientUnits="userSpaceOnUse">
<stop stop-color="#0079D5"/>
<stop offset="1" stop-color="#0367CC"/>
</linearGradient>
<linearGradient id="paint4_linear_342_107" x1="512" y1="0" x2="512" y2="896" gradientUnits="userSpaceOnUse">
<stop stop-color="#0079D5"/>
<stop offset="1" stop-color="#0367CC"/>
</linearGradient>
<linearGradient id="paint5_linear_342_107" x1="512" y1="0" x2="512" y2="896" gradientUnits="userSpaceOnUse">
<stop stop-color="#0085FF"/>
<stop offset="1" stop-color="#0085FF" stop-opacity="0"/>
</linearGradient>
<linearGradient id="paint6_linear_342_107" x1="512" y1="0" x2="512" y2="896" gradientUnits="userSpaceOnUse">
<stop stop-color="#00C2FF"/>
<stop offset="1" stop-color="#00D1FF" stop-opacity="0"/>
</linearGradient>
</defs>
</svg>
